X:1
T:Title
L:1/8
Q:1/4=100
M:6/8
K:D
V:1 treble nm="Church Organ, Staff"
V:1
 D F2 G A2 | B A2 G F2 | D F2 G A2 | BAA G F2 | A B2 Bdc | B A2 G E2 | E F2 ^GAc | B ^G2 G A2 | %8
w: By~E.~J.~Hopkins * * *||||||||
 A A2 Adc | BAB G F2 | A A2 Adc | BAB G F2 | ABc d d2 | c d2- d d2 |] %14
w: ||||||

